images_sukapura_svg/cmd/lc_printpreview.svg

<svg viewBox="0 0 24 24" xmlns="http://www.w3.org/2000/svg" xmlns:xlink="http://www.w3.org/1999/xlink"><linearGradient id="a" gradientUnits="userSpaceOnUse" x1="-24.18644" x2="-24.368666" y1="27.243864" y2="15.142168"><stop offset="0" stop-color="#0040dd"/><stop offset="1" stop-color="#0a84ff"/></linearGradient><linearGradient id="b" gradientUnits="userSpaceOnUse" x1="15" x2="17.000001" y1="7" y2="4.999999"><stop offset="0" stop-color="#fff"/><stop offset=".77967989" stop-color="#f1f1f1"/><stop offset="1" stop-color="#d5d5d5"/></linearGradient><radialGradient id="c" cx="17" cy="6.555555" gradientTransform="matrix(1.4285714 -.00000006 .00000006 1.4285714 -7.285714 -4.365078)" gradientUnits="userSpaceOnUse" r="7"><stop offset="0" stop-color="#d7d7d7"/><stop offset=".29999998" stop-color="#f7f7f7"/><stop offset="1" stop-color="#fff"/></radialGradient><path d="m5 3v18h14v-14.2705905l-4-3.7294095z" fill="url(#c)"/><path d="m5 2c-.554 0-1 .446-1 1v18c0 .554.446 1 1 1h14c.554 0 1-.446 1-1v-10.109375-3.6412209-.2079239c0-.4506799.09887-.4265951-.604637-1.0675892l-3.307389-3.2370335c-.709525-.7368575-.711223-.7368575-1.094804-.7368575h-.331557-.661613zm0 1h9v4c0 .554.446 1 1 1h4v13h-14z" fill="#98989d"/><path d="m15 7h4l-4-4z" fill="#fff" fill-rule="evenodd"/><path d="m15 3 4 4h-4z" fill="url(#b)"/><path d="m15.5 10c-3.025721 0-5.5 2.474279-5.5 5.5s2.474279 5.5 5.5 5.5h.001953c.547836-.00076 1.073576-.116561 1.580078-.294922l1.146485 1.294922h.771484c.554 0 1-.446 1-1v-.765625l-.087891-.048828.087891-7.832031c-.284763-.405469-.619164-.772318-1-1.087891-.952569-.789328-2.173283-1.265625-3.5-1.265625z" fill="#fff" fill-opacity=".784314"/><path d="m15.5 11c-2.485281 0-4.5 2.014719-4.5 4.5s2.014719 4.5 4.5 4.5c.693353-.000949 1.36652-.173359 1.980469-.476562.04151.06914.07504.141449.134765.201171l3.535157 3.53711c.391737.391737 1.022325.391737 1.414062 0 .103037-.103037.175775-.224154.224609-.351563.232642-.164361.346669-.504202.07031-.769531l-.294922-.294922-3.535156-3.535156-.0078-.0078c.633803-.796677.978755-1.784713.978506-2.802747 0-2.485281-2.014719-4.5-4.5-4.5zm-.0098 1.990234a2.5125763 2.5125763 0 0 1 2.511719 2.513672 2.5125763 2.5125763 0 0 1 -2.511719 2.511719 2.5125763 2.5125763 0 0 1 -2.513672-2.511719 2.5125763 2.5125763 0 0 1 2.513672-2.513672z" fill="url(#a)"/></svg>

<?xml version="1.0" encoding="UTF-8" standalone="no"?>
<svg
   xmlns:dc="http://purl.org/dc/elements/1.1/"
   xmlns:cc="http://creativecommons.org/ns#"
   xmlns:rdf="http://www.w3.org/1999/02/22-rdf-syntax-ns#"
   xmlns:svg="http://www.w3.org/2000/svg"
   xmlns="http://www.w3.org/2000/svg"
   xmlns:xlink="http://www.w3.org/1999/xlink"
   xmlns:sodipodi="http://sodipodi.sourceforge.net/DTD/sodipodi-0.dtd"
   xmlns:inkscape="http://www.inkscape.org/namespaces/inkscape"
   viewBox="0 0 24 24"
   version="1.1"
   id="svg24"
   sodipodi:docname="lc_printpreview.svg"
   inkscape:version="0.92.3 (2405546, 2018-03-11)">
  <metadata
     id="metadata30">
    <rdf:RDF>
      <cc:Work
         rdf:about="">
        <dc:format>image/svg+xml</dc:format>
        <dc:type
           rdf:resource="http://purl.org/dc/dcmitype/StillImage" />
        <dc:title></dc:title>
      </cc:Work>
    </rdf:RDF>
  </metadata>
  <defs
     id="defs28">
    <radialGradient
       id="b-4"
       cx="16.299999"
       cy="7.955555"
       gradientTransform="matrix(1.4285714,-6e-8,6e-8,1.4285714,-7.285714,-4.365078)"
       gradientUnits="userSpaceOnUse"
       r="7">
      <stop
         offset="0"
         stop-color="#d7d7d7"
         id="stop9-0" />
      <stop
         offset=".29999998"
         stop-color="#f7f7f7"
         id="stop11-6" />
      <stop
         offset="1"
         stop-color="#fff"
         id="stop13-2" />
    </radialGradient>
    <linearGradient
       inkscape:collect="always"
       xlink:href="#a-3"
       id="linearGradient857"
       x1="17.61017"
       y1="23.176067"
       x2="17.427944"
       y2="11.074371"
       gradientUnits="userSpaceOnUse" />
    <linearGradient
       gradientTransform="translate(-41.79661,4.0677966)"
       id="a-3"
       gradientUnits="userSpaceOnUse"
       x1="14"
       x2="13.79661"
       y1="22"
       y2="2.1355929">
      <stop
         offset="0"
         stop-color="#0040dd"
         id="stop2206" />
      <stop
         offset="1"
         stop-color="#0a84ff"
         id="stop2208" />
    </linearGradient>
  </defs>
  <sodipodi:namedview
     pagecolor="#ffffff"
     bordercolor="#666666"
     borderopacity="1"
     objecttolerance="10"
     gridtolerance="10"
     guidetolerance="10"
     inkscape:pageopacity="0"
     inkscape:pageshadow="2"
     inkscape:window-width="1366"
     inkscape:window-height="685"
     id="namedview26"
     showgrid="false"
     inkscape:zoom="19.666667"
     inkscape:cx="16.649163"
     inkscape:cy="12.586939"
     inkscape:window-x="0"
     inkscape:window-y="0"
     inkscape:window-maximized="1"
     inkscape:current-layer="svg24" />
  <linearGradient
     id="a"
     gradientUnits="userSpaceOnUse"
     x1="15"
     x2="17.0000008"
     y1="7"
     y2="4.9999992">
    <stop
       offset="0"
       stop-color="#fff"
       id="stop2" />
    <stop
       offset=".77967989"
       stop-color="#f1f1f1"
       id="stop4" />
    <stop
       offset="1"
       stop-color="#d5d5d5"
       id="stop6" />
  </linearGradient>
  <radialGradient
     id="b"
     cx="17"
     cy="6.555555"
     gradientTransform="matrix(1.4285714 -.00000006 .00000006 1.4285714 -7.285714 -4.365078)"
     gradientUnits="userSpaceOnUse"
     r="7">
    <stop
       offset="0"
       stop-color="#d7d7d7"
       id="stop9" />
    <stop
       offset=".29999998"
       stop-color="#f7f7f7"
       id="stop11" />
    <stop
       offset="1"
       stop-color="#fff"
       id="stop13" />
  </radialGradient>
  <g
     id="g844">
    <path
       id="path16"
       fill="url(#b)"
       d="m5 3v18h14v-14.2705905l-4-3.7294095z" />
    <path
       id="path18"
       fill="#98989d"
       d="m5 2c-.554 0-1 .446-1 1v18c0 .554.446 1 1 1h14c.554 0 1-.446 1-1v-10.109375-3.6412209-.2079239c0-.4506799.09887-.4265951-.604637-1.0675892l-3.307389-3.2370335c-.709525-.7368575-.711223-.7368575-1.094804-.7368575h-.331557-.661613zm0 1h9v4c0 .554.446 1 1 1h4v13h-14z" />
    <path
       id="path20"
       fill-rule="evenodd"
       fill="#fff"
       d="m15 7h4l-4-4z" />
    <path
       id="path22"
       fill="url(#a)"
       d="m15 3 4 4h-4z" />
    <path
       style="fill:#ffffff;fill-opacity:0.78431374"
       d="M 15.5 10 C 12.474279 10 10 12.474279 10 15.5 C 10 18.525721 12.474279 21 15.5 21 L 15.501953 21 C 16.049789 20.99924 16.575529 20.883439 17.082031 20.705078 L 18.228516 22 L 19 22 C 19.554 22 20 21.554 20 21 L 20 20.234375 L 19.912109 20.185547 L 20 12.353516 C 19.715237 11.948047 19.380836 11.581198 19 11.265625 C 18.047431 10.476297 16.826717 10 15.5 10 z "
       id="path1524" />
  </g>
  <path
     inkscape:connector-curvature="0"
     d="m 15.5,11 c -2.485281,0 -4.5,2.014719 -4.5,4.5 0,2.485281 2.014719,4.5 4.5,4.5 0.693353,-9.49e-4 1.36652,-0.173359 1.980469,-0.476562 0.04151,0.06914 0.07504,0.141449 0.134765,0.201171 l 3.535157,3.53711 c 0.391737,0.391737 1.022325,0.391737 1.414062,0 0.103037,-0.103037 0.175775,-0.224154 0.224609,-0.351563 0.232642,-0.164361 0.346669,-0.504202 0.07031,-0.769531 l -0.294922,-0.294922 -3.535156,-3.535156 -0.0078,-0.0078 C 19.655297,17.50607 20.000249,16.518034 20,15.5 20,13.014719 17.985281,11 15.5,11 Z m -0.0098,1.990234 a 2.5125763,2.5125763 0 0 1 2.511719,2.513672 2.5125763,2.5125763 0 0 1 -2.511719,2.511719 2.5125763,2.5125763 0 0 1 -2.513672,-2.511719 2.5125763,2.5125763 0 0 1 2.513672,-2.513672 z"
     id="path20-0"
     style="fill:url(#linearGradient857);fill-opacity:1" />
</svg>
